modules/hawcons-stroke/icons/icon-16-sad-face.svg

<?xml version="1.0" encoding="UTF-8" standalone="no"?>
<svg width="32px" height="32px" viewBox="0 0 32 32" version="1.1" xmlns="http://www.w3.org/2000/svg" xmlns:xlink="http://www.w3.org/1999/xlink" xmlns:sketch="http://www.bohemiancoding.com/sketch/ns">
    <!-- Generator: Sketch 3.0.3 (7891) - http://www.bohemiancoding.com/sketch -->
    <title>icon 16 sad face</title>
    <desc>Created with Sketch.</desc>
    <defs></defs>
    <g id="Page-1" stroke="none" stroke-width="1" fill="none" fill-rule="evenodd" sketch:type="MSPage">
        <g id="icon-16-sad-face" sketch:type="MSArtboardGroup" fill="#929292">
            <path d="M16.5,29 C23.4035597,29 29,23.4035597 29,16.5 C29,9.59644029 23.4035597,4 16.5,4 C9.59644029,4 4,9.59644029 4,16.5 C4,23.4035597 9.59644029,29 16.5,29 L16.5,29 Z M16.5,28 C22.8512749,28 28,22.8512749 28,16.5 C28,10.1487251 22.8512749,5 16.5,5 C10.1487251,5 5,10.1487251 5,16.5 C5,22.8512749 10.1487251,28 16.5,28 L16.5,28 Z M10,12 L10,13 L14,13 L14,12 L10,12 L10,12 Z M19,12 L19,13 L23,13 L23,12 L19,12 L19,12 Z M16.4813232,21 C13,21 11,23 11,23 L11,22 C11,22 13,20 16.4813232,20 C19.9626465,20 22,22 22,22 L22,23 C22,23 19.9626465,21 16.4813232,21 L16.4813232,21 Z" id="sad-face" sketch:type="MSShapeGroup"></path>
        </g>
    </g>
</svg>

<svg width="32" height="32" xmlns="http://www.w3.org/2000/svg"><path d="M16.5 29C23.404 29 29 23.404 29 16.5S23.404 4 16.5 4 4 9.596 4 16.5 9.596 29 16.5 29zm0-1C22.851 28 28 22.851 28 16.5S22.851 5 16.5 5 5 10.149 5 16.5 10.149 28 16.5 28zM10 12v1h4v-1h-4zm9 0v1h4v-1h-4zm-2.519 9C13 21 11 23 11 23v-1s2-2 5.481-2C19.963 20 22 22 22 22v1s-2.037-2-5.519-2z" fill="#929292" fill-rule="evenodd"/></svg>
